X: 23
T: Rakes Of Mallow, The
M: 2/4
L: 1/8
R: polka
K: Gmaj
|: D |\
GB GB | GB c/B/A/G/ |FA FA | FA d/c/B/A/ |
GB GB | GB d>B | c/B/A/G/ F/G/A/c/ | BG G :|
|: d |\
gf/e/ dc | Bc d2 | gf/e/ dB | ce A2 |
gf/e/ dc | B>c dB | c/B/A/G/ F/G/A/c/ | BG G :|
|: D |\
GB GB/B/ | G>B c/B/A/G/ |FA F/G/A/G/ | FA D2 |
G>B GB/B/ | G/A/B/c/ d>B | cA F/A/d/c/ | BG G :|
|: d |\
gf/e/ d>c | Bc dB/d/ | gf/e/ dc | Bd Ad |
gf/e/ d2 | B>c d2 | cA F/A/d/c/ | BG G :|
&amp; K: Dmaj ~ |: df df | df g/f/e/d/ | ~
&amp; K: Amaj ~ |: Ac Ac | Ac d/c/B/A/ | ~
